X:1
T:Title
%%score { ( 1 2 ) | ( 3 4 ) }
L:1/8
M:4/4
K:E
V:1 treble nm="Grand Piano"
V:2 treble 
V:3 bass 
V:4 bass 
V:1
 z4 z2[Q:1/4=100] z F | G2 G[FA] [GB]2 [FA]G | c4 B2 B2 | A2 BA G2 [FA][EG] |[M:3/4] [DF]6 | %5
[M:1/4] [DF]2 |[M:4/4] [EG]2 [EG][FA] [GB]2 [FA]G | c4 B2 [Ad]2 | [Ge]2 [EG][Ec] [EB]2 [DA][DF] | %9
[M:3/4] E6 |[M:1/4] B>B |[M:4/4] B4 G2 z2 | [Ge]4 [GB]2 [EB]>[EB] | [^Ec]4 [EB]2 [EG]2 | %14
[M:3/4] A4 z2 |[M:1/4] A>A |[M:4/4] d4 c2 z2 | [Ge]4 G2 BA | G4 [DA]2 [DF]2 |[M:3/4] E6 |] %20
V:2
 z4 z2 E2 | x8 | x8 | x8 |[M:3/4] x6 |[M:1/4] x2 |[M:4/4] x8 | x8 | x8 |[M:3/4] x6 |[M:1/4] x2 | %11
[M:4/4] z2 DD z E [GB]2 | x8 | x8 |[M:3/4] x6 |[M:1/4] x2 |[M:4/4] z2 AA AA [AB]2 | x8 | x8 | %19
[M:3/4] x6 |] %20
V:3
 z4 z2 G,A, | [E,B,E]2 [E,B,E][E,B,] [E,E]2 [E,B,][E,B,E] | [A,E]4 [G,B,E]2 [G,B,E]2 | %3
 [F,B,D]2 [F,B,D][F,B,D] [E,B,E]2 [D,B,][E,B,] |[M:3/4] [B,,B,]6 |[M:1/4] [B,,B,]2 | %6
[M:4/4] [E,B,]2 [E,B,][E,B,] [E,E]2 [E,B,][E,B,E] | [A,E]4 [G,B,E]2 [F,B,]2 | %8
 [E,B,]2 [E,B,][A,,A,] [B,,G,]2 [B,,F,][B,,A,] |[M:3/4] [E,G,B,]6 |[M:1/4] z2 | %11
[M:4/4] z2 [B,,B,][B,,B,] [E,B,E][E,B,] [E,E]2 | [E,B,]4 [E,E]2 [E,G,]>[E,G,] | %13
 [C,G,]4 [C,G,]2 [C,C]2 |[M:3/4] [F,CF]4 z2 |[M:1/4] z2 | %16
[M:4/4] z2 [B,,F,][B,,F,] [B,,B,][B,,B,] [D,B,]2 | [E,B,]4 [E,B,E]2[K:treble] [G,B,E][A,CF] | %18
 [B,E]4 [B,,F,]2 [B,,A,]2 |[M:3/4] [E,G,]6 |] %20
V:4
 z4 z2 E,2 | x8 | x8 | x8 |[M:3/4] x6 |[M:1/4] x2 |[M:4/4] x8 | x8 | x8 |[M:3/4] x6 |[M:1/4] x2 | %11
[M:4/4] x8 | x8 | x8 |[M:3/4] x6 |[M:1/4] x2 |[M:4/4] x8 | x6[K:treble] x2 | x8 |[M:3/4] x6 |] %20

